!!!COM: Haydn, Franz Joseph
!!!OTL: String Quartet in C Major
!!!OPS: Opus 50
!!!ONM: No. 2
!!!OMD: Adagio cantabile
!!!OMV: 2
!!!SCT: H III:45
!!!SCA: Thematisch-bibliographisches Werkevererzeichnis (A. van Hoboken)
!!!YOR: Trautwein Edition
!!!ENC: Frances Bennion
!!!CDT: 1732/3/31/-1809/5/31/
!!!CNT: Oesterreich
!!!YEC: Copyright (c) 1994, 2000 Center for Computer Assisted Research in the Humanities
!!!YEM: Rights to all derivative editions reserved.
!!!YEM: Refer to licensing agreement for further details.
!!!YEN: United States of America
**kern	**kern	**kern	**kern
*k[b-]	*k[b-]	*k[b-]	*k[b-]
*F:	*F:	*F:	*F:
*clefF4	*clefC3	*clefG	*clefG
*M4/4	*M4/4	*M4/4	*M4/4
2.r	2.r	2.r	2.r
4r	4r	4c	4r
=1	=1	=1	=1
8F	8A	2.f	8c
8r	8r	.	8r
8F	8A	.	8c
8r	8r	.	8r
8F	8A	.	8c
8r	8r	.	8r
8F	8B-	8.g	8e
8r	8r	.	8r
.	.	16a	.
=2	=2	=2	=2
8F	8A	4f	8f
8r	8r	.	8r
8F	8A	4.r	8c
8r	8r	.	8r
8F	8F	.	8A
4.r	4.r	8c	4.r
.	.	8f	.
.	.	8a	.
=3	=3	=3	=3
4r	4r	[2cc	4r
8F	8A	.	8c
8r	8r	.	8r
8F	8d	8cc]	8f
8r	8r	8b	8r
8F	8e	8.b-	8g
8r	8r	.	8r
.	.	16cc	.
=4	=4	=4	=4
8F	8f	4a	8a
8r	8r	.	8r
8F	8A	4.r	8c
8r	8r	.	8r
8F	8F	.	8A
4.r	4.r	8f	4.r
.	.	8a	.
.	.	8cc	.
=5	=5	=5	=5
4r	4r	8cc#	4r
.	.	16ee	.
.	.	16dd	.
8F	8B-	[4dd	8d
8r	8r	.	8r
8F	8B-	16dd]	8d
.	.	16f	.
8r	8r	16b-	8r
.	.	16dd	.
8F	8B-	8ff	8d
8r	8r	8dd	8r
=6	=6	=6	=6
4r	4r	16b	4r
.	.	16cc	.
.	.	16dd	.
.	.	16cc	.
8F	8A	[4cc	8c
8r	8r	.	8r
8F	8A	16cc]	8c
.	.	16cc	.
8r	8r	16b	8r
.	.	16cc	.
8AA	8F	8cc	8f
8r	8r	16b-	8r
.	.	16a	.
=7	=7	=7	=7
8BB-	8G	8g	8d
8r	8r	4dd	8r
8BB-	8B-	.	8g
8r	8r	32cc	8r
.	.	32b-	.
.	.	32a	.
.	.	32g	.
8C	8A	4f	8f
8r	8r	.	8r
8C	8B-	16.g	8e
.	.	32f	.
8r	8r	16.g	8r
.	.	32a	.
=8	=8	=8	=8
4F	8A	4f	8f
.	8r	.	3..r
2.r	16.A	16.c	.
.	32B-	32d	.
.	16.G	16.B-	.
.	32A	32c	.
.	8F	8A	.
.	4.r	4.r	.
.	.	.	24r
.	.	.	4cc
=9	=9	=9	=9
4F	4A	4A	2.ff
4D	4A-	4B	.
2C	4A	4c	.
.	4B-	4e	8.gg
.	.	.	16aa
=10	=10	=10	=10
8F	8A	8f	4ff
8r	8r	8r	.
8FF	8A	8c	4.r
8r	8r	8r	.
4FF	8F	8A	.
.	4.r	4.r	8cc
4r	.	.	8ff
.	.	.	8aa
=11	=11	=11	=11
4r	4r	4r	[3..ccc
8F	8A	8c	.
8r	8r	8r	.
8F	8d	8f	.
.	.	.	24ccc]
8r	8r	8r	8bb
8F	8e	8g	8.bb-
8r	8r	8r	.
.	.	.	16ccc
=12	=12	=12	=12
4F	8f	8a	4aa
.	8r	8r	.
2.r	8A	8c	4.r
.	8r	8r	.
.	8F	8A	.
.	4.r	4.r	8ff
.	.	.	8aa
.	.	.	8ccc
=13	=13	=13	=13
4r	4r	4r	8ccc#
.	.	.	16eee
.	.	.	16ddd
8F	8d	8b-	4ddd
8r	8r	8r	.
8F	8d	8b-	32ff
.	.	.	32gg-
.	.	.	32gg
.	.	.	32aa-
8r	8r	8r	32aa
.	.	.	32bb-
.	.	.	32bb
.	.	.	32ccc
8F	8d	8b-	32ccc#
.	.	.	32ddd
.	.	.	32eee-
.	.	.	32eee
8r	8r	8r	16fff
.	.	.	16ddd
=14	=14	=14	=14
4r	4r	4r	16bb
.	.	.	16ccc
.	.	.	16ddd
.	.	.	16ccc
8F	8c	8a	4ccc
8r	8r	8r	.
8A	8c	8f	32bb
.	.	.	32ccc
.	.	.	32bb
.	.	.	32ccc
8r	8r	8r	32bb
.	.	.	32ccc
.	.	.	32bb
.	.	.	32ccc
8A	8c	8f	8ccc
8r	8r	8r	16bb-
.	.	.	16aa
=15	=15	=15	=15
4B-	4d	4d	16gg
.	.	.	16ddd
.	.	.	16ccc#
.	.	.	16ccc
4r	4r	4r	16bb
.	.	.	16bb-
.	.	.	16aa
.	.	.	32bb-
.	.	.	32gg
8c	8c	8a	4ff
8r	8r	8r	.
8C	8E	8b-	16.gg
.	.	.	32ff
8r	8r	8r	16.gg
.	.	.	32aa
=16	=16	=16	=16
4F	8F	8a	4ff
.	8r	8r	.
2.r	16.A	16.c	2r
.	32B-	32d	.
.	16.G	16.B-	.
.	32A	32c	.
.	8F	8A	.
.	4.r	4.r	.
.	.	.	4cc
=17	=17	=17	=17
8f	8a	8cc	2.aa
8r	8r	8r	.
8f	8a	8cc	.
8r	8r	8r	.
8e	8g	8cc#	.
8r	8r	8r	.
8e	8a	8cc#	8.gg
8r	8r	8r	.
.	.	.	16aa
=18	=18	=18	=18
8d	8a	8dd	2ff
8r	8r	8r	.
8d	8f	8a	.
8r	8r	8r	.
8c	8f	8a	4r
8r	8r	8r	.
8c	8f	8a	4ff
8r	8r	8r	.
=19	=19	=19	=19
8B	8d	8f	8A-
8r	8r	8r	8G
8B	8d	8f	[6..fff
8r	8r	8r	.
8B	8d	8g	.
.	.	.	48fff]
.	.	.	16eee
8r	8r	8r	16ddd
.	.	.	16ccc
8B	8d	8g	16bb
.	.	.	16aa
8r	8r	8r	16gg
.	.	.	16ff
=20	=20	=20	=20
8c	8c	8g	4ff
8r	8r	8r	.
8c	8c	8g	4ee
8r	8r	8r	.
8E	8c	8cc	8r
8r	8r	8r	8gg
8E	8c	8cc	8gg
8r	8r	8r	8ccc
=21	=21	=21	=21
8F	8c	8cc	8gg#
8r	8r	8r	16bb
.	.	.	16aa
8F	8e	8cc#	4.aa
8r	8r	8r	.
8F	8f	8dd	.
8r	8r	8r	16gg
.	.	.	16ff
8F#	8a	8cc	16ee
.	.	.	16dd
8r	8r	8r	16ee
.	.	.	16cc
=22	=22	=22	=22
8G	8d	8b	[1gg
8r	4.r	4.r	.
8GG	.	.	.
8r	.	.	.
4..e	2g	4..cc	.
16f	.	16dd	.
=23	=23	=23	=23
8d	8f	8b	1gg_
8d	8f	8b	.
8c	8e	8cc	.
8c	8e	8cc	.
8B	8d	8dd	.
8B	4.r	8dd	.
8c	.	8ee	.
8d	.	8ff	.
=24	=24	=24	=24
4d	2r	4ff	1gg_
4c	.	4ee	.
4r	4..cc	4..ee	.
4c	.	.	.
.	16dd	16ff	.
=25	=25	=25	=25
8f	8b	8dd	1gg_
8f	8b	8dd	.
8e	8cc#	8ee	.
8e	8cc#	8ee	.
8d	8.dd	8.ff	.
8c	.	.	.
.	32ee	32gg	.
.	32ff	32aa	.
8B	16ff	16aa	.
.	16ee	16gg	.
8B	16ee	16gg	.
.	16dd	16ff	.
=26	=26	=26	=26
4c	4dd	4ff	2gg]
4C	4cc	4ee	.
2e	[2g	2cc	4..ccc
.	.	.	16ddd
=27	=27	=27	=27
8f	8g]	8dd	8bb
4r	4r	4r	4r
8e	4g	8cc	16.ccc
.	.	.	32ddd
8f	.	8dd	8bb
8e	4g	8cc	16.ccc
.	.	.	32ddd
8f	.	8dd	8bb
8e	[8g	8cc	16.ccc
.	.	.	32ddd
=28	=28	=28	=28
4f	4g]	4dd	4bb
4d	4a-	4b	2fff
4B	2g	4dd	.
4c	.	4cc	4eee
=29	=29	=29	=29
8f	8a	8dd	32ddd
.	.	.	32ccc#
.	.	.	32eee
.	.	.	32ddd
8r	8r	8r	32fff
.	.	.	32eee
.	.	.	32ddd
.	.	.	32ccc#
8f	8a	8dd	32ddd
.	.	.	32ccc#
.	.	.	32eee
.	.	.	32ddd
8r	8r	8r	32fff
.	.	.	32eee
.	.	.	32ddd
.	.	.	32ccc#
8f	8a	8dd	32ddd
.	.	.	32ccc#
.	.	.	32eee
.	.	.	32ddd
8r	8r	8r	32fff
.	.	.	32eee
.	.	.	32ddd
.	.	.	32ccc#
8f	8a	8dd	32ddd
.	.	.	32ccc#
.	.	.	32ddd
.	.	.	32eee
8r	8r	8r	32fff
.	.	.	32ddd
.	.	.	32fff
.	.	.	32ddd
=30	=30	=30	=30
8g	8cc	8ee	16ccc
.	.	.	16ggg
8r	8r	8r	16ggg
.	.	.	16ggg
8G	8cc	8ee	8ggg
8r	8r	8r	32fff
.	.	.	32eee
.	.	.	32ddd
.	.	.	32ccc
8G	8f	8b	2ddd
8r	8r	8r	.
8G	8f	8b	.
8r	8r	8r	.
=31	=31	=31	=31
16CC	1g	1ee-	2..ccc
16EE-	.	.	.
16GG	.	.	.
16C	.	.	.
16E-	.	.	.
16G	.	.	.
16B	.	.	.
16c	.	.	.
16d	.	.	.
16e-	.	.	.
16f	.	.	.
16g	.	.	.
16f	.	.	.
16e-	.	.	.
16d	.	.	16bb-
16c	.	.	16aa
=32	=32	=32	=32
16d	1cc	1a	[2.ff#
16DD	.	.	.
16FF#	.	.	.
16AA	.	.	.
16C	.	.	.
16D	.	.	.
16F#	.	.	.
16A	.	.	.
16B	.	.	.
16c	.	.	.
16d	.	.	.
16e-	.	.	.
16d	.	.	16ff#]
16c	.	.	16ff#
16B-	.	.	16gg
16A	.	.	16aa
=33	=33	=33	=33
16G	1g	1dd	[2.bb-
16GG	.	.	.
16BB-	.	.	.
16D	.	.	.
16F#	.	.	.
16G	.	.	.
16A	.	.	.
16B-	.	.	.
16B	.	.	.
16c	.	.	.
16c#	.	.	.
16d	.	.	.
16c	.	.	16bb-]
16B-	.	.	16bb-
16A	.	.	16ccc
16G	.	.	16ddd
=34	=34	=34	=34
16CC	2g	2..b-	[2.ee
16EE	.	.	.
16GG	.	.	.
16C	.	.	.
16E	.	.	.
16G	.	.	.
16B-	.	.	.
16c	.	.	.
16e	2c	.	.
16f	.	.	.
16g	.	.	.
16f	.	.	.
16e	.	.	16ee]
16d	.	.	16ee
16c	.	8g	16ff
16B-	.	.	16gg
=35	=35	=35	=35
16A	2c	2a	2ff
16CC	.	.	.
16FF	.	.	.
16AA	.	.	.
16C	.	.	.
16F	.	.	.
16A	.	.	.
16c	.	.	.
16r	4d	4f	2b
16DD	.	.	.
16FF	.	.	.
16BB	.	.	.
8D	4r	4r	.
8r	.	.	.
=36	=36	=36	=36
2.C	2.c	2.e	2.cc
4r	4r	4r	16dd-
.	.	.	16dd
.	.	.	16ee-
.	.	.	16ee
=37	=37	=37	=37
8F	8A	8c	2.ff
8r	8r	8r	.
8F	8A	8c	.
8r	8r	8r	.
8F	8A	8c	.
8r	8r	8r	.
8F	8B-	8e	8.gg
8r	8r	8r	.
.	.	.	16aa
=38	=38	=38	=38
8F	8A	8f	4ff
8r	8r	8r	.
8F	8A	8c	4r
8r	8r	8r	.
8F	8F	8A	32r
.	.	.	32A
.	.	.	32B-
.	.	.	32c
4.r	4.r	4.r	32d
.	.	.	32e
.	.	.	32f
.	.	.	32g
.	.	.	32a
.	.	.	32b-
.	.	.	32cc
.	.	.	32dd
.	.	.	32ee
.	.	.	32ff
.	.	.	32gg
.	.	.	64aa
.	.	.	64bb-
=39	=39	=39	=39
4r	4r	4r	[3..ccc
8F	8A	8c	.
8r	8r	8r	.
8F	8d	8f	.
.	.	.	24ccc]
8r	8r	8r	8bb
8F	8e	8g	8.bb-
8r	8r	8r	.
.	.	.	16ccc
=40	=40	=40	=40
8F	8f	8a	4aa
8r	8r	8r	.
8F	8A	8c	4.r
8r	8r	8r	.
8F	8F	8A	.
4.r	4.r	4.r	8ff
.	.	.	8aa
.	.	.	8ccc
=41	=41	=41	=41
8A	8c	8f	[2eee-
8r	8r	8r	.
8A	8c	8f	.
8r	8r	8r	.
8A	8c	8f	16eee-]
.	.	.	16ddd
8r	8r	8r	16ccc
.	.	.	16bb-
8A	8c	8f	16aa
.	.	.	16gg
8r	8r	8r	16ff
.	.	.	16ee-
=42	=42	=42	=42
8B-	8d	8f	16ee-
.	.	.	16dd
8r	8r	8r	16cc#
.	.	.	16dd
8B-	8d	8f#	[6..ddd
8r	8r	8r	.
8B-	8d	8g	.
.	.	.	48ddd]
.	.	.	16ccc
8r	8r	8r	16bb-
.	.	.	16aa
8B	8d	8g	16aa
.	.	.	16gg
8r	8r	8r	16aa
.	.	.	16ff
=43	=43	=43	=43
4c	4e	4g	[1ccc
4r	4C	4r	.
4..a	4r	4..ff	.
.	4cc	.	.
16b-	.	16gg	.
=44	=44	=44	=44
8g	8b-	8ee	1ccc_
8g	8b-	8ee	.
8f	8a	8ff	.
8f	8a	8ff	.
8e	8g	8gg	.
8e	4.r	8gg	.
8f	.	8aa	.
8g	.	8bb-	.
=45	=45	=45	=45
4g	2r	4bb-	1ccc_
4f	.	4aa	.
4r	4..f	4..aa	.
4F	.	.	.
.	16g	16bb-	.
=46	=46	=46	=46
8B-	8e	8gg	1ccc_
8B-	8e	8gg	.
8A	8f#	8aa	.
8A	8f#	8aa	.
8G	8.g	8.bb-	.
8F	.	.	.
.	32a	32ccc	.
.	32b-	32ddd	.
8E	16b-	16ddd	.
.	16a	16ccc	.
8E	16a	16ccc	.
.	16g	16bb-	.
=47	=47	=47	=47
4F	4g	4bb-	2ccc_
4F	4f	4aa	.
8E-	8f	8a	4..ccc]
8r	8r	8r	.
8E-	8f	8a	.
8r	8r	8r	.
.	.	.	16ddd
=48	=48	=48	=48
8D	8f	8b-	8bb-
8r	8r	8r	6fff
8BB-	8f	8dd	.
.	.	.	24eee-
.	.	.	24ddd
8r	8r	8r	24ccc
.	.	.	24bb-
.	.	.	24aa
8B-	8g	8dd	24gg
.	.	.	24ff#
.	.	.	24aa
4.r	4.r	4.r	24gg
.	.	.	24bb-
.	.	.	24aa
.	.	.	24ccc
.	.	.	24bb-
.	.	.	24ccc#
.	.	.	24ddd
.	.	.	24bb-
.	.	.	24gg
=49	=49	=49	=49
4B-	4c	4g	24ff
.	.	.	24ee
.	.	.	24ddd
.	.	.	24ccc
.	.	.	24bb-
.	.	.	24aa
4r	4r	4r	24gg
.	.	.	24ff
.	.	.	24ee
.	.	.	24gg
.	.	.	24bb-
.	.	.	24ddd
4A	4c	4f	24ccc
.	.	.	24bb-
.	.	.	24aa
.	.	.	24gg
.	.	.	24ff
.	.	.	24ee
4r	4r	4r	24gg
.	.	.	24ff
.	.	.	24aa
.	.	.	24gg
.	.	.	24bb-
.	.	.	24aa
=50	=50	=50	=50
4E	4c	4b-	24ccc
.	.	.	24bb-
.	.	.	24aa
.	.	.	24gg
.	.	.	24bb-
.	.	.	24aa
4r	4r	4r	24gg
.	.	.	24ff
.	.	.	24ee
.	.	.	24dd
.	.	.	24cc
.	.	.	24b-
4F	4c	4a	24a
.	.	.	24cc
.	.	.	24b-
.	.	.	24dd
.	.	.	24cc
.	.	.	24ff
4r	4r	4r	24ee
.	.	.	24gg
.	.	.	24ff
.	.	.	24aa
.	.	.	24ff
.	.	.	24cc
=51	=51	=51	=51
8BB-	8d	8g	24dd
.	.	.	24f#
.	.	.	24g
8r	8r	8r	24a
.	.	.	24b-
.	.	.	24f#
8BB-	8d	8g	24g
.	.	.	24a
.	.	.	24b-
8r	8r	8r	24cc#
.	.	.	24dd
.	.	.	24a
8BB-	8d	8g	24b-
.	.	.	24ff#
.	.	.	24gg
8r	8r	8r	24aa
.	.	.	24bb-
.	.	.	24ff#
8BB-	8d	8g	24gg
.	.	.	24bb-
.	.	.	24ff#
8r	8r	8r	24gg
.	.	.	24bb-
.	.	.	24gg
=52	=52	=52	=52
8C	8f	8a	24ff
.	.	.	24ccc
.	.	.	24ccc
8r	8r	8r	24ccc
.	.	.	24bb
.	.	.	24bb-
8C	8f	8a	24aa
.	.	.	24fff
.	.	.	24fff
8r	8r	8r	24fff
.	.	.	24ccc
.	.	.	24aa
8C	8c	8e	2gg
8r	8r	8r	.
8C	8c	8e	.
8r	8r	8r	.
=53	=53	=53	=53
2D	2B	2f	24ff
.	.	.	24aa
.	.	.	24gg
.	.	.	24ff
.	.	.	24ee
.	.	.	24dd
.	.	.	24cc
.	.	.	24b
.	.	.	24a
.	.	.	24g
.	.	.	24a
.	.	.	24f
[2C	[2B-	[2g	24e
.	.	.	24g
.	.	.	24b-
.	.	.	24cc
.	.	.	24ee
.	.	.	24gg
.	.	.	24bb-
.	.	.	24gg
.	.	.	24ee
.	.	.	24cc
.	.	.	24b-
.	.	.	24g
=54	=54	=54	=54
8C]	8B-]	8g]	4e
4.r	4.r	4.r	.
.	.	.	4r
4c	2g	2e	4..b-
4c#	.	.	.
.	.	.	16cc
=55	=55	=55	=55
4d	4f	4f	4a
4r	4r	4r	4r
4.BB-	4.B-	4.d	[6..g
.	.	.	48g]
.	.	.	16g
8r	8r	8r	16b-
.	.	.	32r
.	.	.	32dd
=56	=56	=56	=56
4C	4A	4A	4f
4r	4r	4r	4r
4C	4E	4B-	4g
8.r	8.r	8.r	8.r
16D	16F	16A	16f
=57	=57	=57	=57
4D	4F	4A	4f
4r	4r	4r	4r
4d-	4f	4f	4..b-
4c	4g	4e	.
.	.	.	16cc
=58	=58	=58	=58
4F	4f	4f	4a
4r	4r	4r	4r
4.BB-	4.B-	4.d	24f#
.	.	.	24g
.	.	.	24a-
.	.	.	24a
.	.	.	24b-
.	.	.	24b
.	.	.	24cc
.	.	.	24cc#
.	.	.	24ee
8r	8r	8r	24dd
.	.	.	24b-
.	.	.	24g
=59	=59	=59	=59
4C	4A	4A	4f
4r	4r	4r	4r
4C	4E	4B-	4g
8.r	8.r	8.r	8.r
16FF	16F	16A	16f
=60	=60	=60	=60
4FF	4F	4A	4f
2.r	2.r	2.r	2.r
==	==	==	==
*-	*-	*-	*-
!!!RWG1: This file contains only pitch and duration data.
!!!RWG2: Transposing instruments are not transposed.
!!!RWG3: Spines may have incompatible meters.
!!!RWG4: Durations of rests and tied notes may be interpreted.
!!!RWG: Key is interpreted using the Humdrum key tool.
!!!GTL: 6 Quartetti ("Prussian")
!!!AFT: stage1
!!!END: 1997/04/15
!!!KEY: 3514705372
!!!EMD: Converted from MuseData to Humdrum Dec 16, 2000, by Andreas Kornstaedt using muse2kern.
!!!EMD: Manual editing by Craig Sapp, Nov 2001
